X:1
T:Sechs kleine Präludien
T:Prelude in C minor, BWV 934
T:Sechs kleine Präludien
T:2. Prelude in C minor, BWV 934
T:Johann Sebastian Bach
T:OpenScore (CC0)
C:Johann Sebastian Bach
Z:OpenScore (CC0)
%%score { ( 1 3 ) | 2 }
L:1/8
Q:1/4=180
M:3/4
K:Eb
V:1 treble nm="Harpsichord" snm="Hch."
V:3 treble 
V:2 bass 
V:1
"^[]" cdeGdF |{F} EDCEGc | Fedfac |{c} =B=AGBdf | ecGc=ec | fcgc_ac | dBFBdB | eBfBgB | cAGAce | %9
 BGFGBe | AGFGAE | DEFDB,A, | G,B,EB,G,B, | A,EB,ECE | B,ECE_DE | C2 E2 A2- | A2 F2 =d2- | %17
 d2 B2 g2- | gfedcd | e6 :: gabgbf | =e=dcegb | af_dg=ec | BGAcf=A | B=df_agf | gedc=Bf | edce=AG | %27
 ^FG=AFDA | dG^FcBG | C^FG=AEC | B,D^FG=A,F | G2 (MB4 | B)_d=ecgB | _ABcAF=E | FA=BGdF | %35
 _EFGEC=B, | CE^FD=AC | =B,D=F_AG=B | dfecG=B | c6 :| %40
V:2
 C,2 C2 G,2 | A,2 A,,2 z2 | A,2 F,2 D,2 | G,2 G,,2 z2 | C,2 C2 _B,2 | _A,2 G,2 F,2 | B,,2 B,2 A,2 | %7
 G,2 F,2 E,2 | A,2 C2 F,2 | G,2 B,2 E,2 | F,2 A,2 F,2 | B,2 B,,2 D,2 | E,2 E,,2 _D,2 | %13
 C,2 B,,2 A,,2 | G,,2 F,,2 E,,2 | A,,E,A,G,F,E, | =D,F,B,A,G,F, | G,B,E_DCB, | A,2 B,2 B,,2 | %19
 E,3 B, E2 :: E,2 E2 _D2 | C2 =E,2 C,2 | F,2 B,,2 C,2 | F,,2 F,2 _E,2 | =D,2 B,,2 D,2 | E,2 E2 D2 | %26
 C2 =A,2 C2 | D2 D,2 C,2 | B,,2 =A,,2 G,,2 | E,2 D,2 C,2 | D,2 C,2 D,2 | G,,D,G,B,_D=F, | %32
 =E,2 C,2 E,2 | F,G, _A,2 z2 | =B,,2 G,,2 B,,2 | C,D, _E,2 z2 | ^F,,2 D,,2 F,,2 | G,,2 D,2 E,2 | %38
 _A,,2 F,,2 G,,2 | C,3 G, C2 :| %40
V:3
 x6 | x6 | x6 | x6 | x6 | x6 | x6 | x6 | x6 | x6 | x6 | x6 | x6 | x6 | x6 | x6 | x6 | x6 | x6 | %19
 z B G4 :: x6 | x6 | x6 | x6 | x6 | x6 | x6 | x6 | x6 | x6 | x6 | x2 !courtesy!x4 | x6 | x6 | x6 | %35
 x6 | x6 | x6 | x6 | z G E4 :| %40

